X:1
T:QA 4
L:1/8
M:4/4
V:1
V:2 clef=bass
K:C
[V:1] A F2 E DFAc | e3 B B4 | d2 Bc GAcB | _BGD^C C4 :|
[V:2] [D,F,C]8 | [G,,F,B,]8 | [C,E,B,]8 | [A,,G,^C]8 :|